;FLAVOR:Marlin
;TIME:6666
;Filament used: 0m
;Layer height: 2

;Generated with Cura_SteamEngine 3.6.0
M104 S215
M105
M109 S215
M82 ;absolute extrusion mode
G28 ;Home
G1 Z15.0 F6000 ;Move the platform down 15mm
;Prime the extruder
G92 E0
G1 F200 E3
G92 E0
G92 E0
G1 F1500 E-6.5
;LAYER_COUNT:26
;LAYER:0
M107
;MESH:Bunny.stl
G0 F3600 X264.597 Y599.422 Z0.3
;TYPE:WALL-INNER
G1 F1500 E0
G1 F1800 X263.669 Y598.018 E0.08396
G1 X263.492 Y597.821 E0.09718
G1 X262.768 Y596.12 E0.18941
G1 X262.793 Y594.636 E0.26345
G1 X262.801 Y594.55 E0.26776
G1 X263.331 Y592.902 E0.35413
G1 X264.461 Y591.831 E0.4318
G1 X265.947 Y591.331 E0.51003
G1 X265.976 Y591.33 E0.51147
G1 X267.552 Y591.637 E0.59158
G1 X267.827 Y591.709 E0.60576
G1 X270.295 Y592.527 E0.73548
G1 X271.117 Y592.668 E0.77708
G1 X271.461 Y592.559 E0.79509
G1 X272.234 Y591.837 E0.84786
G1 X272.384 Y591.623 E0.8609
G1 X273.715 Y590.167 E0.95931
G1 X273.888 Y590.008 E0.97104
G1 X274.628 Y589.368 E1.01985
G1 X275.473 Y589.002 E1.06579
G1 X275.573 Y588.975 E1.07096
G1 X276.406 Y588.931 E1.11257
G1 X283.613 Y591.038 E1.48718
G1 X283.874 Y591.122 E1.50086
G1 X284.158 Y591.168 E1.51522
G1 X286.426 Y591.662 E1.63102
G1 X286.651 Y591.704 E1.64244
G1 X288.479 Y592.229 E1.73733
G1 X289.334 Y592.708 E1.78622
G1 X290.558 Y593.684 E1.86432
G1 X290.613 Y593.721 E1.86763
G1 X290.744 Y593.976 E1.88193
G1 X292.073 Y597.08 E2.05039
G1 X293.067 Y598.345 E2.13065
G1 X293.479 Y598.576 E2.15422
G1 X294.087 Y599.103 E2.19436
G1 X294.925 Y599.854 E2.2505
G1 X295.176 Y600.097 E2.26793
G1 X295.947 Y601.188 E2.33458
G1 X295.994 Y601.299 E2.34059
G1 X296.18 Y602.201 E2.38654
G1 X296.208 Y603.011 E2.42698
G1 X296.107 Y603.255 E2.44015
G1 X295.154 Y604.634 E2.52378
G1 X295.051 Y604.762 E2.53198
G1 X293.399 Y605.972 E2.63414
G1 X292.906 Y606.169 E2.66062
G1 X291.314 Y607.151 E2.75394
G1 X290.82 Y608.041 E2.80473
G1 X290.707 Y608.268 E2.81738
G1 X289.663 Y611.36 E2.9802
G1 X289.587 Y611.495 E2.98792
G1 X288.889 Y612.603 E3.05326
G1 X288.175 Y613.114 E3.09706
G1 X288.126 Y613.133 E3.09968
G1 X287.973 Y613.156 E3.1074
G1 X286.573 Y613.574 E3.1803
G1 X282.187 Y614.127 E3.40085
G1 X279.772 Y614.495 E3.52272
G1 X276.151 Y615.268 E3.70745
G1 X275.998 Y615.292 E3.71517
G1 X273.376 Y615.808 E3.84849
G1 X273.337 Y615.811 E3.85044
G1 X271.083 Y615.186 E3.96714
G1 X270.997 Y615.152 E3.97175
G1 X270.21 Y614.107 E4.03702
G1 X268.956 Y610.914 E4.20816
G1 X268.823 Y610.748 E4.21878
G1 X268.02 Y609.923 E4.27621
G1 X267.623 Y609.783 E4.29722
G1 X264.372 Y608.758 E4.46728
G1 X264.061 Y608.635 E4.48396
G1 X261.833 Y607.231 E4.61535
G1 X260.765 Y605.319 E4.72461
G1 X261.03 Y603.656 E4.80863
G1 X262.043 Y602.399 E4.88917
G1 X262.568 Y601.822 E4.92809
G1 X264.377 Y600.007 E5.05593
G1 X264.597 Y599.422 E5.08711
G0 F3600 X264.151 Y599.472
;TYPE:WALL-OUTER
G1 F1800 X263.353 Y598.266 E5.15926
G1 X263.172 Y598.07 E5.17257
G1 X263.128 Y597.987 E5.17726
G1 X262.367 Y596.199 E5.27421
G1 X262.393 Y594.62 E5.35299
G1 X262.407 Y594.466 E5.36071
G1 X262.958 Y592.755 E5.45039
G1 X262.994 Y592.671 E5.45495
G1 X264.251 Y591.48 E5.54134
G1 X265.876 Y590.933 E5.62688
G1 X266.009 Y590.929 E5.63352
G1 X267.641 Y591.246 E5.71646
G1 X267.943 Y591.326 E5.73205
G1 X270.392 Y592.138 E5.86077
G1 X271.089 Y592.257 E5.89605
G1 X271.254 Y592.205 E5.90468
G1 X271.93 Y591.574 E5.95081
G1 X272.07 Y591.373 E5.96303
G1 X273.432 Y589.884 E6.06371
G1 X273.626 Y589.706 E6.07684
G1 X274.413 Y589.025 E6.12877
G1 X275.341 Y588.623 E6.17922
G1 X275.507 Y588.578 E6.1878
G1 X276.43 Y588.53 E6.23391
G1 X276.541 Y588.549 E6.23953
G1 X283.736 Y590.657 E6.61358
G1 X283.968 Y590.732 E6.62575
G1 X284.232 Y590.775 E6.63909
G1 X286.506 Y591.27 E6.7552
G1 X286.739 Y591.314 E6.76703
G1 X288.637 Y591.859 E6.86554
G1 X289.556 Y592.374 E6.9181
G1 X290.795 Y593.361 E6.99713
G1 X290.922 Y593.447 E7.00478
G1 X291.105 Y593.803 E7.02475
G1 X292.42 Y596.874 E7.19142
G1 X293.332 Y598.035 E7.26508
G1 X293.708 Y598.246 E7.28659
G1 X294.354 Y598.805 E7.32921
G1 X295.192 Y599.556 E7.38535
G1 X295.484 Y599.839 E7.40564
G1 X296.299 Y600.992 E7.47608
G1 X296.378 Y601.18 E7.48625
G1 X296.579 Y602.153 E7.53582
G1 X296.611 Y603.082 E7.5822
G1 X296.459 Y603.448 E7.60197
G1 X295.466 Y604.885 E7.68911
G1 X295.331 Y605.053 E7.69987
G1 X293.593 Y606.326 E7.80735
G1 X293.086 Y606.528 E7.83457
G1 X291.613 Y607.437 E7.92093
G1 X291.174 Y608.228 E7.96606
G1 X291.077 Y608.422 E7.97688
G1 X290.031 Y611.52 E8.14002
G1 X289.925 Y611.708 E8.15078
G1 X289.185 Y612.883 E8.22006
G1 X288.369 Y613.467 E8.27012
G1 X288.229 Y613.523 E8.27765
G1 X288.06 Y613.548 E8.28617
G1 X286.653 Y613.967 E8.35941
G1 X282.242 Y614.523 E8.58122
G1 X279.844 Y614.889 E8.70224
G1 X276.221 Y615.662 E8.88706
G1 X276.068 Y615.686 E8.89479
G1 X273.432 Y616.204 E9.02881
G1 X273.301 Y616.216 E9.03538
G1 X270.956 Y615.565 E9.15679
G1 X270.755 Y615.486 E9.16757
G1 X270.704 Y615.427 E9.17146
G1 X269.886 Y614.345 E9.23913
G1 X269.852 Y614.289 E9.2424
G1 X268.606 Y611.117 E9.41242
G1 X268.523 Y611.014 E9.41902
G1 X267.798 Y610.269 E9.47088
G1 X267.496 Y610.162 E9.48687
G1 X264.231 Y609.132 E9.65767
G1 X263.882 Y608.994 E9.6764
G1 X261.542 Y607.52 E9.81437
G1 X261.454 Y607.379 E9.82266
G1 X260.375 Y605.441 E9.93333
G1 X260.359 Y605.396 E9.93571
G1 X260.363 Y605.302 E9.9404
G1 X260.652 Y603.489 E10.032
G1 X261.747 Y602.13 E10.11907
G1 X262.272 Y601.553 E10.15799
G1 X264.033 Y599.786 E10.28245
G1 X264.151 Y599.472 E10.29918
G0 F3600 X264.041 Y599.306
G0 X265.032 Y599.373
;TYPE:SKIN
G1 F1800 X263.979 Y597.778 E10.39453
G1 X263.825 Y597.608 E10.40598
G1 X263.16 Y596.044 E10.49077
G1 X263.185 Y594.629 E10.56137
G1 X263.671 Y593.118 E10.64056
G1 X264.667 Y592.174 E10.70902
G1 X265.989 Y591.729 E10.77861
G1 X267.46 Y592.016 E10.85339
G1 X267.716 Y592.083 E10.86659
G1 X270.2 Y592.907 E10.99716
G1 X271.144 Y593.068 E11.04493
G1 X271.662 Y592.904 E11.07204
G1 X272.53 Y592.094 E11.13127
G1 X272.691 Y591.865 E11.14524
G1 X273.997 Y590.436 E11.24182
G1 X274.839 Y589.702 E11.29755
G1 X275.633 Y589.363 E11.34062
G1 X276.363 Y589.325 E11.37709
G1 X283.499 Y591.411 E11.748
G1 X283.783 Y591.502 E11.76288
G1 X284.086 Y591.551 E11.77819
G1 X286.348 Y592.044 E11.8937
G1 X286.57 Y592.087 E11.90498
G1 X288.328 Y592.592 E11.99623
G1 X289.115 Y593.032 E12.04121
G1 X290.309 Y593.983 E12.11737
G1 X290.385 Y594.13 E12.12563
G1 X291.734 Y597.281 E12.29663
G1 X292.808 Y598.647 E12.38332
G1 X293.254 Y598.897 E12.40883
G1 X293.827 Y599.393 E12.44664
G1 X294.654 Y600.135 E12.50207
G1 X294.882 Y600.355 E12.51788
G1 X295.605 Y601.378 E12.58038
G1 X295.62 Y601.413 E12.58228
G1 X295.791 Y602.245 E12.62465
G1 X295.816 Y602.94 E12.65935
G1 X295.763 Y603.065 E12.66612
G1 X294.841 Y604.401 E12.74711
G1 X294.778 Y604.479 E12.75211
G1 X293.211 Y605.627 E12.84902
G1 X292.73 Y605.82 E12.87488
G1 X291.023 Y606.872 E12.97492
G1 X290.475 Y607.859 E13.03124
G1 X290.346 Y608.118 E13.04567
G1 X289.306 Y611.199 E13.20791
G1 X289.257 Y611.287 E13.21293
G1 X288.601 Y612.329 E13.27436
G1 X288.003 Y612.757 E13.31105
G1 X287.888 Y612.774 E13.31685
G1 X286.492 Y613.191 E13.38954
G1 X282.133 Y613.741 E13.60873
G1 X279.702 Y614.111 E13.73141
G1 X276.081 Y614.883 E13.91612
G1 X273.363 Y615.413 E14.05428
G1 X271.239 Y614.824 E14.16425
G1 X270.553 Y613.914 E14.2211
G1 X269.297 Y610.717 E14.39247
G1 X269.116 Y610.489 E14.40699
G1 X268.236 Y609.586 E14.4699
G1 X267.746 Y609.413 E14.49582
G1 X264.51 Y608.392 E14.66511
G1 X264.236 Y608.284 E14.6798
G1 X262.127 Y606.955 E14.80417
G1 X261.172 Y605.247 E14.9018
G1 X261.4 Y603.818 E14.97399
G1 X262.332 Y602.662 E15.04808
G1 X262.857 Y602.085 E15.087
G1 X264.712 Y600.223 E15.21812
G1 X265.032 Y599.373 E15.26344
G0 F3600 X262.183 Y606.686
G1 F1800 X262.43 Y606.933 E15.28086
G0 F3600 X263.959 Y607.896
G1 F1800 X261.465 Y605.402 E15.45683
G0 F3600 X261.426 Y604.797
G1 F1800 X264.979 Y608.35 E15.70751
G1 X265.007 Y608.378
G0 F3600 X265.805 Y608.611
G1 F1800 X261.504 Y604.309 E16.01101
G0 F3600 X261.607 Y603.847
G1 F1800 X266.632 Y608.871 E16.36551
G1 X266.66 Y608.899
G0 F3600 X267.458 Y609.132
G1 F1800 X261.86 Y603.534 E16.76048
G0 F3600 X262.112 Y603.22
G1 F1800 X268.313 Y609.421 E17.19799
G1 X268.341 Y609.449
G0 F3600 X268.894 Y610.002
G1 F1800 X273.997 Y615.105 E17.55804
G0 F3600 X274.47 Y615.013
G1 F1800 X262.364 Y602.907 E18.41218
G0 F3600 X262.627 Y602.604
G1 F1800 X274.944 Y614.921 E19.28121
G0 F3600 X275.417 Y614.828
G1 F1800 X262.896 Y602.307 E20.16464
G0 F3600 X263.174 Y602.02
G1 F1800 X275.89 Y614.736 E21.06182
G0 F3600 X276.359 Y614.639
G1 F1800 X263.456 Y601.736 E21.9722
G0 F3600 X263.739 Y601.453
G1 F1800 X276.825 Y614.539 E22.89548
G0 F3600 X277.291 Y614.44
G1 F1800 X264.021 Y601.17 E23.83175
G0 F3600 X264.303 Y600.886
G1 F1800 X277.757 Y614.34 E24.78101
G0 F3600 X278.223 Y614.241
G1 F1800 X264.585 Y600.603 E25.74324
G0 F3600 X264.867 Y600.318
G1 F1800 X278.69 Y614.142 E26.71856
G0 F3600 X279.156 Y614.042
G1 F1800 X265.021 Y599.907 E27.71586
G0 F3600 X265.176 Y599.496
G1 F1800 X279.623 Y613.943 E28.73518
G0 F3600 X280.111 Y613.866
G1 F1800 X264.525 Y598.28 E29.83485
G1 X264.497 Y598.252
G0 F3600 X263.726 Y596.914
G1 F1800 X280.602 Y613.791 E31.02558
G0 F3600 X281.093 Y613.716
G1 F1800 X263.342 Y595.965 E32.27801
G0 F3600 X263.352 Y595.409
G1 F1800 X281.584 Y613.642 E33.56441
G0 F3600 X282.075 Y613.567
G1 F1800 X263.361 Y594.853 E34.88479
G0 F3600 X263.453 Y594.379
G1 F1800 X282.577 Y613.503 E36.23409
G0 F3600 X283.079 Y613.439
G1 F1800 X263.591 Y593.952 E37.60904
G0 F3600 X263.729 Y593.524
G1 F1800 X283.582 Y613.376 E39.00974
G0 F3600 X284.084 Y613.313
G1 F1800 X263.91 Y593.139 E40.43312
G0 F3600 X264.201 Y592.864
G1 F1800 X284.587 Y613.25 E41.87147
G0 F3600 X285.089 Y613.186
G1 F1800 X264.491 Y592.588 E43.32477
G0 F3600 X264.79 Y592.322
G1 F1800 X285.591 Y613.123 E44.79239
G0 F3600 X286.093 Y613.06
G1 F1800 X265.213 Y592.179 E46.26562
G0 F3600 X265.635 Y592.036
G1 F1800 X286.576 Y612.977 E47.74312
G0 F3600 X287.011 Y612.846
G1 F1800 X266.096 Y591.931 E49.21879
G0 F3600 X266.799 Y592.068
G1 F1800 X287.447 Y612.716 E50.67561
G0 F3600 X287.887 Y612.59
G1 F1800 X267.511 Y592.214 E52.11325
G1 X267.483 Y592.186
G0 F3600 X268.342 Y592.48
G1 F1800 X288.232 Y612.37 E53.5166
G0 F3600 X288.53 Y612.102
G1 F1800 X269.189 Y592.761 E54.88121
G1 X269.161 Y592.733
G0 F3600 X270.036 Y593.042
G1 F1800 X288.749 Y611.755 E56.20151
G0 F3600 X288.967 Y611.408
G1 F1800 X270.74 Y593.181 E57.48753
G0 F3600 X271.323 Y593.198
G1 F1800 X289.169 Y611.044 E58.74666
G0 F3600 X289.312 Y610.621
G1 F1800 X271.753 Y593.063 E59.98551
G0 F3600 X272.046 Y592.79
G1 F1800 X289.454 Y610.198 E61.21373
G0 F3600 X289.596 Y609.774
G1 F1800 X272.339 Y592.517 E62.43131
G0 F3600 X272.632 Y592.244
G1 F1800 X289.739 Y609.352 E63.63834
G0 F3600 X289.882 Y608.929
G1 F1800 X272.878 Y591.924 E64.83809
G0 F3600 X273.148 Y591.629
G1 F1800 X290.025 Y608.506 E66.02886
G0 F3600 X290.168 Y608.083
G1 F1800 X273.419 Y591.334 E67.21059
G0 F3600 X273.689 Y591.038
G1 F1800 X290.355 Y607.704 E68.38647
G0 F3600 X290.557 Y607.341
G1 F1800 X273.959 Y590.743 E69.55755
G0 F3600 X274.242 Y590.461
G1 F1800 X290.758 Y606.976 E70.7228
G0 F3600 X291.012 Y606.665
G1 F1800 X274.544 Y590.197 E71.88471
G0 F3600 X274.847 Y589.934
G1 F1800 X291.362 Y606.449 E73.04993
G0 F3600 X291.712 Y606.233
G1 F1800 X275.215 Y589.736 E74.21388
G0 F3600 X275.611 Y589.567
G1 F1800 X292.062 Y606.018 E75.37459
G0 F3600 X292.412 Y605.802
G1 F1800 X276.128 Y589.517 E76.52355
G0 F3600 X276.823 Y589.647
G1 F1800 X292.78 Y605.604 E77.6494
G0 F3600 X293.173 Y605.431
G1 F1800 X277.622 Y589.881 E78.74658
G1 X277.594 Y589.853
G0 F3600 X278.421 Y590.114
G1 F1800 X293.499 Y605.192 E79.81041
G0 F3600 X293.825 Y604.952
G1 F1800 X279.22 Y590.347 E80.84087
G1 X279.192 Y590.319
G0 F3600 X280.02 Y590.581
G1 F1800 X294.152 Y604.713 E81.83796
G0 F3600 X294.478 Y604.473
G1 F1800 X280.819 Y590.815 E82.80164
G1 X280.791 Y590.787
G0 F3600 X281.618 Y591.048
G1 F1800 X294.764 Y604.194 E83.72916
G0 F3600 X294.995 Y603.859
G1 F1800 X282.417 Y591.281 E84.61661
G1 X282.389 Y591.253
G0 F3600 X283.217 Y591.516
G1 F1800 X295.226 Y603.524 E85.46387
G0 F3600 X295.457 Y603.19
G1 F1800 X283.982 Y591.715 E86.2735
G0 F3600 X284.7 Y591.868
G1 F1800 X295.63 Y602.797 E87.04463
G0 F3600 X295.598 Y602.199
G1 F1800 X285.424 Y592.025 E87.76246
G0 F3600 X286.147 Y592.183
G1 F1800 X292.465 Y598.501 E88.20823
G0 F3600 X292.828 Y598.864
G1 F1800 X295.451 Y601.487 E88.3933
G1 X295.479 Y601.515
G0 F3600 X291.335 Y596.805
G1 F1800 X286.897 Y592.368 E88.70639
G1 X286.869 Y592.34
G0 F3600 X287.691 Y592.595
G1 F1800 X290.912 Y595.816 E88.93365
G1 X290.94 Y595.844
G0 F3600 X290.489 Y594.828
M104 S210
G1 F1800 X288.626 Y592.965 E89.06509
G1 X288.598 Y592.937
G0 F3600 X269.778 Y611.452
G1 F1800 X273.524 Y615.198 E89.32939
G0 F3600 X272.841 Y615.081
G1 F1800 X270.145 Y612.384 E89.51964
G1 X270.117 Y612.356
G0 F3600 X270.51 Y613.316
G1 F1800 X272.057 Y614.863 E89.62879
G1 X272.085 Y614.891
;MESH:NONMESH
G0 F3600 X265.275 Y598.815
;TIME_ELAPSED:78.163092
;LAYER:1
M106 S255
;MESH:Bunny.stl
G0 F5400 X265.275 Y598.815 Z2.3
;TYPE:WALL-INNER
G1 F2700 X264.974 Y598.372 E89.80693
G1 X264.36 Y597.783 E90.08992
G1 X263.575 Y596.921 E90.47769
G1 X263.108 Y596.056 E90.80464
G1 X263.063 Y595.95 E90.84294
G1 X263.065 Y595.863 E90.87189
G1 X263.206 Y594.329 E91.38425
G1 X263.409 Y593.699 E91.6044
G1 X263.806 Y592.785 E91.93583
G1 X264.719 Y591.856 E92.36906
G1 X264.853 Y591.729 E92.43046
G1 X264.974 Y591.688 E92.47296
G1 X266.482 Y591.642 E92.97475
G1 X266.944 Y591.732 E93.1313
G1 X269.657 Y592.46 E94.06557
G1 X270.468 Y592.729 E94.34976
G1 X270.851 Y592.794 E94.47897
G1 X271.773 Y592.516 E94.79927
G1 X271.984 Y592.319 E94.89528
G1 X272.717 Y591.26 E95.32365
G1 X273.194 Y590.642 E95.5833
G1 X274.555 Y589.442 E96.1868
G1 X274.866 Y589.289 E96.30207
G1 X275.895 Y589.015 E96.65625
G1 X276.132 Y589.002 E96.73519
G1 X277.291 Y589.203 E97.12643
G1 X280.701 Y590.23 E98.31092
G1 X281.543 Y590.475 E98.60259
G1 X283.502 Y591.098 E99.28631
G1 X285.751 Y591.469 E100.04444
G1 X286.535 Y591.639 E100.31126
G1 X288.592 Y592.025 E101.00736
G1 X289.15 Y592.186 E101.20052
G1 X290.312 Y592.503 E101.60113
G1 X291.501 Y593.58 E102.13471
G1 X291.905 Y594.119 E102.35875
G1 X293.114 Y596.406 E103.21915
G1 X293.415 Y596.608 E103.33972
G1 X295.141 Y597.863 E104.0495
G1 X295.894 Y597.965 E104.30224
G1 X297.425 Y599.294 E104.97654
G1 X297.61 Y599.48 E105.0638
G1 X297.743 Y599.718 E105.15448
G1 X298.321 Y601.07 E105.64353
G1 X298.416 Y601.525 E105.79812
G1 X298.402 Y602.72 E106.19561
G1 X298.261 Y603.884 E106.58559
G1 X298.167 Y604.279 E106.72063
G1 X296.99 Y605.781 E107.35531
G1 X296.888 Y605.877 E107.4019
G1 X296.823 Y605.922 E107.42819
G1 X294.224 Y606.958 E108.35877
G1 X293.364 Y607.157 E108.65237
G1 X292.917 Y607.33 E108.81179
G1 X292.662 Y607.581 E108.93079
G1 X291.922 Y608.028 E109.21834
G1 X291.645 Y608.525 E109.40758
G1 X290.861 Y610.116 E109.99751
G1 X290.398 Y611.484 E110.47786
G1 X289.552 Y612.992 E111.05296
G1 X288.246 Y613.522 E111.52174
G1 X287.356 Y613.652 E111.8209
G1 X286.05 Y613.739 E112.25624
G1 X283.06 Y614.109 E113.2583
G1 X280.151 Y614.537 E114.23626
G1 X278.911 Y614.742 E114.65428
G1 X277.449 Y615.054 E115.15149
G1 X276.117 Y615.251 E115.59934
G1 X274.741 Y615.521 E116.06572
G1 X273.681 Y615.615 E116.41966
G1 X273.419 Y615.584 E116.50741
G1 X271.905 Y615.008 E117.04618
G1 X271.251 Y614.282 E117.37118
G1 X270.814 Y613.702 E117.61272
G1 X270.463 Y613.114 E117.84048
G1 X270.032 Y612.128 E118.19839
G1 X269.54 Y610.868 E118.64828
G1 X268.968 Y610.142 E118.95569
G1 X268.588 Y609.751 E119.13704
G1 X266.256 Y608.918 E119.96066
G1 X265.814 Y608.779 E120.11477
G1 X262.859 Y607.61 E121.17172
G1 X261.942 Y606.139 E121.74826
G1 X261.576 Y605.482 E121.99839
G1 X261.34 Y604.809 E122.2356
G1 X261.372 Y604.073 E122.48062
G1 X261.456 Y603.966 E122.52587
G1 X263.893 Y601.387 E123.70603
G1 X264.954 Y600.509 E124.16408
G1 X265.275 Y598.815 E124.73753
G0 F5400 X264.851 Y598.903
;TYPE:WALL-OUTER
G1 F1800 X264.667 Y598.631 E124.84675
G1 X264.077 Y598.066 E125.11846
G1 X263.246 Y597.154 E125.52882
G1 X262.749 Y596.232 E125.8772
